X: 1413
T: An Tóstal
R: reel
M: 4/4
K: Dmajor
|:~A2 FA DAFA|BdAd fdec|~B2 GB EBGB|~B2 ef gece|
dAFA DAFA|BdAd fdec|dBcA BdAF|GEAG FD D2:|
|:~a2 fd eA ~A2|BdAd fdfa|b2 gb ebgb|~a2 ~f2 dfag|
fafd BdAd|fdec defa|bgaf gfed|1 ceag fd d2:|2 ceag fedB||

